X: 20244
T: Joe Derrane's
R: barndance
M: 4/4
K: Gmajor
Bc|:dedB GBdg|f2 e2 e2 AB|cecB ABcd|e2 d2 B2 Bc|
dedB GBdg|f2 e2 a3 g|fgfe dcBA|1 GgdB G2 Bc:|2 GgdB G2 GA||
B2 d2 d^cde|d2 c2cB AB|c2 e2 e3 f|e2 d2 B3c|
d2 e2 f2 g2|g2 f2 f3g|f2 e2 e3 f|e2 d2 d2 BA|
B2 d2 d^cde|d2 c2cB AB|c2 e2 e3 f|e2 d2 B3c|
d2 e2 f2 g2|a2 g2 e3 g|fgfe dcBA|GgdB G2 Bc|

